X:102
T:Blackberry Blossoms
M:2/4
L:1/16
K:G
(ge)|dBAc (BA)GA|BcB^A B2(ge)|dBAc (BA)GB|(Aa2).b .a2(ge)|dBAc (BA)GA|
BcB^A B2(ge)|dBAc (BA)GB|(Aa2)b a2::z2|(ba).g.a. gfe2|(gf).g.a .b.ge2|
(gf).g.a gfe2|(ea2).b a4|(gf).g.a gfe2|(gf).g.a bge2|(ga)bg afge|(ea2).b .a2:|
